X: 29268
T: New Mown Meadows, The
R: reel
M: 4/4
K: Adorian
|:ADDA D2 EG|AdBG AGEG|ADDA D2 EG|~G2 AG EdBG|
ADDA D2 EG|AdBG AGEG|cecd ~B3 A|1 ~G2 AG EdBG:|2 ~G2AG EGBe||
|:d2 Bd edBd|deBG AGEG|d2 Bd edBA|~G2 A GE ~G3|
d2 Bd edBd|deBG AGEG|cecd ~B3 A|1 ~G2AG EGBe:|2 ~G2 AG EdBG||

